X:1
T:A Major Oliver Holden, 1803
T:Samuel Medley, 1789 88. 88. (L. M.)
T:Forerunner No copyright. Transcribed from The Charlestown Collection, 1803.
%%score [ 1 2 3 4 ]
L:1/8
M:4/4
K:A
V:1 treble nm="Treble" snm="Tr."
V:2 treble nm="Counter" snm="C."
V:3 treble-8 nm="Tenor" snm="T."
V:4 bass nm="Bass" snm="B."
V:1
 A4 c2 c2 | c4 A4 | A4 B4 | c6 A2 | c2 c2 d2 e2 | c4 B4 | B6 z2 | z8 | z8 | z8 | z8 | z8 | z8 | %13
w: |||||||||||||
w: |||||||||||||
 z8 | z4 z2 c2 | e2 d2 c2 A2 | A2 c2 e2 c2 | d2 e2 e2 c2 | B4 B4 | B6 c2 | c2 B2 A2 A2 | %21
w: ||||||* 1.~Where|all is won- der,|
w: ||||||* 2.~And|with our great fore-|
 A2 A2 e2 c2 | (d2 e2) f4 | A4 A4 | (c2 B2) (A2 G2) | A6 c2 | e2 d2 c2 d2 | f2 f2 f4 | e4 e2 d2 | %29
w: joy, and love, There|Je- * sus|our fore-|run- * ner *|lives. *||||
w: run- ner there, For|ev- * er|and for|ev- * er *|dwell. *||||
 (c2 e2) d4 | (A2 B2) (e2 d2) | c8 |] %32
w: |||
w: |||
V:2
 E4 E2 E2 | E4 D4 | C4 E4 | E6 E2 | E2 E2 G2 E2 | E4 ^D4 | E6 z2 | z8 | z8 | z8 | z8 | z8 | z8 | %13
w: 1.~Far, far be-|yond these|lo- wer|skies, Up|to the glo- ries|all His|own,|||||||
w: 2.~Be- fore His|heav'n- ly|Fath- er's|face, For|eve- ry saint He|in- ter-|cedes;|||||||
 z8 | z4 z2 E2 | A2 A2 E2 F2 | F2 E2 A2 E2 | E2 E2 E2 A2 | E4 ^D4 | E6 z2 | z8 | z8 | z8 | z8 | %24
w: |1.~A-|midst the shi- ning|hosts a- bove, Where|His blest smile new|plea- sure|gives,|||||
w: |2.~We|shall, when we in|heav'n ap- pear, His|prai- ses sing, His|won- ders|tell.|||||
 z8 | z4 z2 E2 | A2 G2 A2 A2 | F2 F2 F4 | G4 A2 G2 | A4 F4 | E4 E4 | E8 |] %32
w: |1.~Where|all is won- der,|joy, and love,|There Je- sus|our fore-|run- ner|lives.|
w: |2.~And|with out great fore-|run- ner there,|For ev- er|and for|ev- er|dwell.|
V:3
 c4 A2 A2 | A4 F4 | E4 G4 | A6 E2 | A2 A2 B2 c2 | A4 F4 | E6 A2 | c4 c4 | c6 A2 | (A2 B2) (c2 d2) | %10
w: ||||||* 1.~Where|we by|faith look|up * our *|
w: ||||||* 2.~And|with in-|fal- li-|ble * suc- *|
 e6 c2 | (d2 e2) f4 | A4 A4 | (c2 B2) (A2 G2) | A6 c2 | c2 A2 A2 F2 | F2 A2 c2 A2 | B2 B2 B2 e2 | %18
w: eyes, There|Je- * sus|our fore-|run- * ner's *|gone. *||||
w: cess, There|Je- * sus,|our fore-|run- * ner *|pleads. *||||
 G4 (B2 ^d2) | e6 z2 | z8 | z8 | z8 | z8 | z8 | z4 z2 A2 | c2 d2 e2 f2 | ^d2 d2 d4 | e4 c2 B2 | %29
w: |||||||||||
w: |||||||||||
 (A2 E2) (A2 B2) | (c2 d2) B4 | A8 |] %32
w: |||
w: |||
V:4
 A,,4 A,,2 A,,2 | C,4 D,4 | C,4 E,4 | A,,6 A,,2 | A,,2 C,2 B,,2 A,,2 | A,,4 B,,4 | E,6 F,2 | %7
w: |||||||
w: |||||||
 A,4 F,4 | C,6 C,2 | (F,2 G,2) (A,2 B,2) | C6 A,2 | (B,2 C2) D4 | C4 A,4 | E,4 E,4 | A,,6 A,,2 | %15
w: ||||||||
w: ||||||||
 C,2 D,2 C,2 D,2 | B,,2 A,,2 A,2 A,2 | G,2 E,2 G,2 A,2 | B,4 B,,4 | E,6 A,2 | A,2 G,2 F,2 F,2 | %21
w: ||||* 1.~Where|all is won- der,|
w: ||||* 2.~And|with our great fore-|
 F,2 F,2 E,2 A,2 | (D,2 C,2) B,,4 | A,,4 (C,2 D,2) | E,4 E,4 | A,6 A,2 | A,2 B,2 C2 A,2 | %27
w: joy, and love, There|Je- * sus|our fore- *|run- ner|lives. *||
w: run- ner there, For|ev- * er|and for- *|ev- er|dwell. *||
 B,2 B,2 B,4 | E,4 A,2 E,2 | C,4 D,4 | E,4 E,4 | A,,8 |] %32
w: |||||
w: |||||

